X:493
T:Corn Riggs
C:Joe Buchanan's Scottish Tome - Page 176.3
I:176 3
Z:Carl Allison
R:Polka
L:1/8
M:4/4
K:D
A2 | "D"d2 de f2 ed | "Em"cBcd "A7"e2 A2 | "D"d2 de fgfe | "D"d2 a2 "A7"a2 A2 |
"D"d2 de f2 ed | "Em"cBcd "A7"e2 A2 | "G"BcdB "A7"edcB | "D"A2 d2 d2 :|
A2 | "D"d2 a2 "D/F#"f2 a2 | "Em"cBcd "A7"e2 A2 | "D"d2 a2 "A7"fgfe | "D"d2 a2 "A7"a2 A2 |
"D"d2 a2 bagf | "Em"gfed c2 "A7"A2 | "G"BcdB "A7"edcB | "D"A2 d2 d2 :|
%
W:Errata: Changed the (only) "Am" chord (third line, second measure) to an "A7" chord.
